svgs/sharp-light/tombstone-blank.svg

<svg xmlns="http://www.w3.org/2000/svg" viewBox="0 0 448 512"><!--! Font Awesome Pro 6.6.0 by @fontawesome - https://fontawesome.com License - https://fontawesome.com/license (Commercial License) Copyright 2024 Fonticons, Inc. --><path d="M384 192l0 256 32 0 0-256C416 86 330 0 224 0S32 86 32 192l0 256 32 0 0-256c0-88.4 71.6-160 160-160s160 71.6 160 160zM16 480L0 480l0 32 16 0 416 0 16 0 0-32-16 0L16 480z"/></svg>

<svg xmlns="http://www.w3.org/2000/svg" viewBox="0 0 448 512"><!--! Font Awesome Pro 6.4.0 by @fontawesome - https://fontawesome.com License - https://fontawesome.com/license (Commercial License) Copyright 2023 Fonticons, Inc. --><path d="M384 192V448h32V192C416 86 330 0 224 0S32 86 32 192V448H64V192c0-88.4 71.6-160 160-160s160 71.6 160 160zM16 480H0v32H16 432h16V480H432 16z"/></svg>
